Newaita/actions/22/view-list-details.svg

<svg height="22" viewBox="0 0 22 22" width="22" xmlns="http://www.w3.org/2000/svg"><g fill="#424242"><path d="m12.28125 3.808594h7.273438c.253906 0 .457031.207031.457031.457031v.910156c0 .25-.203125.453125-.457031.453125h-7.273438c-.253906 0-.457031-.203125-.457031-.453125v-.910156c0-.25.203125-.457031.457031-.457031zm0 0"/><path d="m12.28125 16.542969h7.273438c.253906 0 .457031.207031.457031.457031v.910156c0 .25-.203125.453125-.457031.453125h-7.273438c-.253906 0-.457031-.203125-.457031-.453125v-.910156c0-.25.203125-.457031.457031-.457031zm0 0"/><path d="m12.28125 10.175781h7.273438c.253906 0 .457031.207031.457031.457031v.910157c0 .25-.203125.453125-.457031.453125h-7.273438c-.253906 0-.457031-.203125-.457031-.453125v-.910157c0-.25.203125-.457031.457031-.457031zm0 0"/><path d="m3.636719 1.992188c-1.007813 0-1.816407.808593-1.816407 1.816406v6.367187h8.183594v-8.183593zm.910156 1.816406h3.640625v4.550781h-4.550781v-3.640625c0-.503906.40625-.910156.910156-.910156zm0 0"/><path d="m3.636719 20.183594c-1.007813 0-1.816407-.8125-1.816407-1.820313v-6.367187h8.183594v8.1875zm.910156-1.820313h3.640625v-4.546875h-4.550781v3.636719c0 .503906.40625.910156.910156.910156zm0 0"/></g></svg>

<svg xmlns="http://www.w3.org/2000/svg" xmlns:xlink="http://www.w3.org/1999/xlink" width="22px" height="22px" viewBox="0 0 22 22" version="1.1">
<g id="surface1">
     <defs>
  <style id="current-color-scheme" type="text/css">
   .ColorScheme-Text { color:#424242; } .ColorScheme-Highlight { color:#eeeeee; }
  </style>
 </defs>
<path style="fill:currentColor" class="ColorScheme-Text" d="M 12.28125 3.808594 L 19.554688 3.808594 C 19.808594 3.808594 20.011719 4.015625 20.011719 4.265625 L 20.011719 5.175781 C 20.011719 5.425781 19.808594 5.628906 19.554688 5.628906 L 12.28125 5.628906 C 12.027344 5.628906 11.824219 5.425781 11.824219 5.175781 L 11.824219 4.265625 C 11.824219 4.015625 12.027344 3.808594 12.28125 3.808594 Z M 12.28125 3.808594 "/>
     <defs>
  <style id="current-color-scheme" type="text/css">
   .ColorScheme-Text { color:#424242; } .ColorScheme-Highlight { color:#eeeeee; }
  </style>
 </defs>
<path style="fill:currentColor" class="ColorScheme-Text" d="M 12.28125 16.542969 L 19.554688 16.542969 C 19.808594 16.542969 20.011719 16.75 20.011719 17 L 20.011719 17.910156 C 20.011719 18.160156 19.808594 18.363281 19.554688 18.363281 L 12.28125 18.363281 C 12.027344 18.363281 11.824219 18.160156 11.824219 17.910156 L 11.824219 17 C 11.824219 16.75 12.027344 16.542969 12.28125 16.542969 Z M 12.28125 16.542969 "/>
     <defs>
  <style id="current-color-scheme" type="text/css">
   .ColorScheme-Text { color:#424242; } .ColorScheme-Highlight { color:#eeeeee; }
  </style>
 </defs>
<path style="fill:currentColor" class="ColorScheme-Text" d="M 12.28125 10.175781 L 19.554688 10.175781 C 19.808594 10.175781 20.011719 10.382812 20.011719 10.632812 L 20.011719 11.542969 C 20.011719 11.792969 19.808594 11.996094 19.554688 11.996094 L 12.28125 11.996094 C 12.027344 11.996094 11.824219 11.792969 11.824219 11.542969 L 11.824219 10.632812 C 11.824219 10.382812 12.027344 10.175781 12.28125 10.175781 Z M 12.28125 10.175781 "/>
     <defs>
  <style id="current-color-scheme" type="text/css">
   .ColorScheme-Text { color:#424242; } .ColorScheme-Highlight { color:#eeeeee; }
  </style>
 </defs>
<path style="fill:currentColor" class="ColorScheme-Text" d="M 3.636719 1.992188 C 2.628906 1.992188 1.820312 2.800781 1.820312 3.808594 L 1.820312 10.175781 L 10.003906 10.175781 L 10.003906 1.992188 Z M 4.546875 3.808594 L 8.1875 3.808594 L 8.1875 8.359375 L 3.636719 8.359375 L 3.636719 4.71875 C 3.636719 4.214844 4.042969 3.808594 4.546875 3.808594 Z M 4.546875 3.808594 "/>
     <defs>
  <style id="current-color-scheme" type="text/css">
   .ColorScheme-Text { color:#424242; } .ColorScheme-Highlight { color:#eeeeee; }
  </style>
 </defs>
<path style="fill:currentColor" class="ColorScheme-Text" d="M 3.636719 20.183594 C 2.628906 20.183594 1.820312 19.371094 1.820312 18.363281 L 1.820312 11.996094 L 10.003906 11.996094 L 10.003906 20.183594 Z M 4.546875 18.363281 L 8.1875 18.363281 L 8.1875 13.816406 L 3.636719 13.816406 L 3.636719 17.453125 C 3.636719 17.957031 4.042969 18.363281 4.546875 18.363281 Z M 4.546875 18.363281 "/>
</g>
</svg>
